X:1
T:Conquest, 76.76 D
T:Conquest, 76.76 D
T:John Frederick Bridge (1844-1924)
T:Public Domain Courtesy of the Cyber Hymnal™
C:John Frederick Bridge (1844-1924)
Z:Public Domain
Z:Courtesy of the Cyber Hymnal™
%%score ( 1 2 ) ( 3 4 )
L:1/8
Q:1/4=115
M:4/4
K:Ab
V:1 treble 
V:2 treble 
V:3 bass 
V:4 bass 
V:1
 [CE]2 | [DF]2 [EG]2 [EA]2 [Ac]2 | [Ae]4 [Ad]2 [Ec]2 | [FB]2 [Ec]2 [Dd]2 [Ed]2 | [Ec]6 [CE]2 | %5
 [DF]2 [DG]2 [FA]2 [Ac]2 | e4 [Bd]2 [Ac]2 | [GB]2 G2 [FB]2 B2 | [GB]6 [EB]2 | %9
 [Fd]2 [Fd]2 [Ec]2 [=Ec]2 | [Fc]4 [FA]2 [Gc]2 | [FB]2 [EG]2 [GB]2 [FA]2 | [EG]6 [B,E]2 | %13
 [CF]2 [EG]2 [EA]2 [Ac]2 | [Ae]4 [Ad]2 [Gc]2 | [Fc]2 [FB]2 [Fd]2 [EB]2 | [CA]6 |] %17
V:2
 x2 | x8 | x8 | x8 | x8 | x8 | (G2 A2) x4 | x2 G2 (EF) x2 | x8 | x8 | x8 | x8 | x8 | x8 | x8 | x8 | %16
 x6 |] %17
V:3
 [A,,A,]2 | [D,A,]2 [D,B,]2 [C,A,]2 [A,E]2 | [_G,C]4 [F,A,]2 [E,A,]2 | %3
 [D,A,]2 [C,A,]2 [B,,A,]2 [E,G,]2 | [A,,A,]6 [A,,A,]2 | [D,A,]2 [B,,B,]2 [F,C]2 [F,A,]2 | %6
 B,4 [G,E]2 [B,E]2 | [B,E]2 [B,E]2 [B,,=D]2 (CD) | [E,E]6 [E,G,]2 | [D,A,]2 [F,A,]2 A,2 [G,B,]2 | %10
 [F,A,]4 [F,C]2 [E,C]2 | [=D,F,]2 [E,B,]2 [C,B,]2 [D,B,]2 | [E,B,]6 [E,G,]2 | %13
 [E,A,]2 [D,B,]2 [C,A,]2 [A,E]2 | [_G,C]4 [F,D]2 [E,=G,]2 | [D,A,]2 [D,A,]2 [B,,A,]2 [E,G,]2 | %16
 [A,,A,]6 |] %17
V:4
 x2 | x8 | x8 | x8 | x8 | x8 | (E,2 F,2) x4 | x6 B,,2 | x8 | x4 A,2 x2 | x8 | x8 | x8 | x8 | x8 | %15
 x8 | x6 |] %17

